X:1
T:Title
%%score { ( 1 4 ) | ( 2 3 ) }
L:1/8
Q:1/4=100
M:4/4
K:C
V:1 treble nm="Grand Piano"
V:4 treble 
V:2 bass 
V:3 bass 
V:1
 [Ec]2 [Fc]2 [Ec]3 [Gc] | edcB [Ec]2 [EG]2 | d2 d2 d3 d | z4 d4 | [Ec]2 [Fc]2 [Ec]3 [Gc] | %5
w: F.~J.~Howard * * *|||||
 edcB [Ec]2 [EG]2 | [Gd]4 .B2 z2 | [GB]2 [C^FA]2 [B,G]4 | [Cc]4 z4 | [Cc]4 z4 | [Gd]4 .B2 z2 | %11
w: ||||||
 B2 [FA]2 [DG]4 | [Ge]3 [Fd] [Ec]2 [EG]2 | z4 z2 B2 | c4[K:bass][K:treble] z2 .[Gc]2 | z2 d2 z4 |] %16
w: |||||
V:2
 [C,G,]2 [C,A,]2 [C,G,]3 [E,C] | [G,CG][G,F]ED[K:bass] [C,G,]2 [C,C]2 | %2
 [G,B,G]2 [A,C^F]2 [B,DG]3 [G,B,G] | [B,DG]2 [CG]2 G2 z2 | [C,G,]2 [C,A,]2 [C,G,]3 [E,C] | %5
 [G,CG][G,F]ED[K:bass] [C,G,]2 [C,C]2 | z4 z2[K:treble] .[B,D]2 | D2[K:bass] D,2 G,4 | %8
 C,D,E,C, F,C, z2 | C,D,E,C, F,C, z2 | z4 z2[K:treble] .[B,D]2 | [DG]2[K:bass] [D,C]2 [G,B,]4 | %12
 [C,C]3 [C,G,] [C,G,]2 [C,C]2 | F2 z2 z4 | C4 F,2 z2 | [G,CG]2 .[G,,G,B,G]2 [C,G,]4 |] %16
V:3
 x8 | z2 G,2[K:bass] z4 | x8 | z4 [G,B,]4 | x8 | z2 G,2[K:bass] z4 | %6
 [G,B,]A,B,^F, G,A,[K:treble]G-[CG] | x2[K:bass] x6 | x8 | x8 | [G,B,]A,B,F, G,A,[K:treble]G-[CG] | %11
 x2[K:bass] x6 | x8 | [F,C][D,G,][E,C][F,A,F] [G,E]2 [G,D]2 | [E,G,]C,D,E, z DE,F, | x8 |] %16
V:4
 x8 | x8 | x8 | f2 e2 z2 F2 | x8 | x8 | z CD[DAc] [DG]-[DGc]de | x8 | EFG[CEG] [CFA][CEG] z2 | %9
 EFG[CEG] [CFA][CEG] z2 | z CD[DAc] [DG]-[DGc]de | x8 | x8 | AB[Gc]d c2 z F, | %14
 z[K:bass] E,F,[K:treble][G,CG] [CA][GB]C-[CAf] | e2 z F [Ec]4 |] %16

